assets/images/luggage.svg

<svg xmlns="http://www.w3.org/2000/svg" xml:space="preserve" id="Layer_1" x="0" y="0" viewBox="0 0 20 20"><style>.st0{fill-rule:evenodd;clip-rule:evenodd}</style><path d="M7 5V2.5c0-.3-.2-.5-.5-.5S6 1.8 6 1.5v-1c0-.3.2-.5.5-.5h7c.3 0 .5.2.5.5v1c0 .3-.2.5-.5.5s-.5.2-.5.5V5h3c1.1 0 2 .9 2 2v8c0 1.1-.9 2-2 2H4c-1.1 0-2-.9-2-2V7c0-1.1.9-2 2-2zm3.5-3c.3 0 .5.2.5.5V5H9V2.5c0-.3.2-.5.5-.5z" class="st0"/><path d="M5.5 17c.8 0 1.5.7 1.5 1.5S6.3 20 5.5 20 4 19.3 4 18.5 4.7 17 5.5 17m9 0c.8 0 1.5.7 1.5 1.5s-.7 1.5-1.5 1.5-1.5-.7-1.5-1.5.7-1.5 1.5-1.5"/></svg>

<svg xmlns="http://www.w3.org/2000/svg" xmlns:xlink="http://www.w3.org/1999/xlink" id="Layer_1" x="0" y="0" version="1.1" viewBox="0 0 20 20" style="enable-background:new 0 0 20 20" xml:space="preserve"><style type="text/css">.st0{fill-rule:evenodd;clip-rule:evenodd}</style><path d="M7,5V2.5C7,2.2,6.8,2,6.5,2S6,1.8,6,1.5v-1C6,0.2,6.2,0,6.5,0h7C13.8,0,14,0.2,14,0.5v1C14,1.8,13.8,2,13.5,2	S13,2.2,13,2.5V5h3c1.1,0,2,0.9,2,2v8c0,1.1-0.9,2-2,2h-1.5h-9H4c-1.1,0-2-0.9-2-2V7c0-1.1,0.9-2,2-2H7z M10.5,2	C10.8,2,11,2.2,11,2.5V5H9V2.5C9,2.2,9.2,2,9.5,2H10.5z" class="st0"/><path d="M5.5,17C6.3,17,7,17.7,7,18.5S6.3,20,5.5,20S4,19.3,4,18.5S4.7,17,5.5,17z"/><path d="M14.5,17c0.8,0,1.5,0.7,1.5,1.5S15.3,20,14.5,20S13,19.3,13,18.5S13.7,17,14.5,17z"/></svg>
